client/resources/iconsets/breeze/src/svg/large/icon_large_print.svg

<svg xmlns="http://www.w3.org/2000/svg" width="32" height="32" viewBox="0 0 32 32">
 <path style="fill:#6d6d70"
       d="M 8 4 C 7.446 4 7 4.446 7 5 L 7 12 L 5 12 C 4.446 12 4 12.446 4 13 L 4 23 C 4 23.554 4.446 24 5 24 L 10 24 L 10 27 C 10 27.554 10.446 28 11 28 L 21 28 C 21.554 28 22 27.554 22 27 L 22 24 L 27 24 C 27.554 24 28 23.554 28 23 L 28 13 C 28 12.446 27.554 12 27 12 L 25 12 L 25 5 C 25 4.446 24.554 4 24 4 L 8 4 z M 9 6 L 23 6 L 23 12 L 9 12 L 9 6 z M 12 8 C 11.446 8 11 8.446 11 9 C 11 9.554 11.446 10 12 10 L 20 10 C 20.554 10 21 9.554 21 9 C 21 8.446 20.554 8 20 8 L 12 8 z M 6 14 L 26 14 L 26 22 L 24 22 L 24 20 C 24 19.446 23.554 19 23 19 L 9 19 C 8.446 19 8 19.446 8 20 L 8 22 L 6 22 L 6 14 z M 23 15 A 1 1 0 0 0 22 16 A 1 1 0 0 0 23 17 A 1 1 0 0 0 24 16 A 1 1 0 0 0 23 15 z M 12 24 L 20 24 L 20 26 L 12 26 L 12 24 z "
       />
</svg>

<svg xmlns="http://www.w3.org/2000/svg" width="32" height="32"><path d="M8 4a1 1 0 0 0-1 1v7H5a1 1 0 0 0-1 1v10a1 1 0 0 0 1 1h5v3a1 1 0 0 0 1 1h10a1 1 0 0 0 1-1v-3h5a1 1 0 0 0 1-1V13a1 1 0 0 0-1-1h-2V5a1 1 0 0 0-1-1H8zm1 2h14v6H9V6zm3 2a1 1 0 1 0 0 2h8a1 1 0 1 0 0-2h-8zm-6 6h20v8h-2v-2a1 1 0 0 0-1-1H9a1 1 0 0 0-1 1v2H6v-8zm17 1a1 1 0 1 0 0 2 1 1 0 1 0 0-2zm-11 9h8v2h-8v-2z" fill="#6d6d70"/></svg>
